android/app/src/main/assets/presets/urban/capitalinas.xmp
<x:xmpmeta xmlns:x="adobe:ns:meta/" x:xmptk="Adobe XMP Core 7.0-c000 1.000000, 0000/00/00-00:00:00        ">
 <rdf:RDF xmlns:rdf="http://www.w3.org/1999/02/22-rdf-syntax-ns#">
  <rdf:Description rdf:about=""
    xmlns:crs="http://ns.adobe.com/camera-raw-settings/1.0/"
   crs:PresetType="Normal"
   crs:Cluster=""
   crs:UUID="E7DB303DA0BA4E03ACD1667E17F34B64"
   crs:SupportsAmount2="True"
   crs:SupportsAmount="True"
   crs:SupportsColor="True"
   crs:SupportsMonochrome="True"
   crs:SupportsHighDynamicRange="True"
   crs:SupportsNormalDynamicRange="True"
   crs:SupportsSceneReferred="True"
   crs:SupportsOutputReferred="True"
   crs:RequiresRGBTables="False"
   crs:ShowInPresets="True"
   crs:ShowInQuickActions="False"
   crs:CameraModelRestriction=""
   crs:Copyright=""
   crs:ContactInfo=""
   crs:Version="18.4"
   crs:ProcessVersion="15.4"
   crs:WhiteBalance="Custom"
   crs:Temperature="5200"
   crs:Tint="+14"
   crs:Exposure2012="+0.01"
   crs:Contrast2012="+20"
   crs:Highlights2012="-15"
   crs:Shadows2012="+52"
   crs:Whites2012="-18"
   crs:Blacks2012="+100"
   crs:Texture="+15"
   crs:Clarity2012="+47"
   crs:Dehaze="+71"
   crs:Vibrance="+16"
   crs:Saturation="-9"
   crs:ParametricShadows="0"
   crs:ParametricDarks="0"
   crs:ParametricLights="0"
   crs:ParametricHighlights="0"
   crs:ParametricShadowSplit="25"
   crs:ParametricMidtoneSplit="50"
   crs:ParametricHighlightSplit="75"
   crs:Sharpness="0"
   crs:LuminanceSmoothing="0"
   crs:ColorNoiseReduction="0"
   crs:HueAdjustmentRed="+32"
   crs:HueAdjustmentOrange="-15"
   crs:HueAdjustmentYellow="-100"
   crs:HueAdjustmentGreen="-100"
   crs:HueAdjustmentAqua="0"
   crs:HueAdjustmentBlue="0"
   crs:HueAdjustmentPurple="0"
   crs:HueAdjustmentMagenta="0"
   crs:SaturationAdjustmentRed="+17"
   crs:SaturationAdjustmentOrange="+13"
   crs:SaturationAdjustmentYellow="+6"
   crs:SaturationAdjustmentGreen="-100"
   crs:SaturationAdjustmentAqua="-98"
   crs:SaturationAdjustmentBlue="-77"
   crs:SaturationAdjustmentPurple="-100"
   crs:SaturationAdjustmentMagenta="-100"
   crs:LuminanceAdjustmentRed="+26"
   crs:LuminanceAdjustmentOrange="+22"
   crs:LuminanceAdjustmentYellow="0"
   crs:LuminanceAdjustmentGreen="+5"
   crs:LuminanceAdjustmentAqua="0"
   crs:LuminanceAdjustmentBlue="-19"
   crs:LuminanceAdjustmentPurple="0"
   crs:LuminanceAdjustmentMagenta="0"
   crs:SplitToningShadowHue="203"
   crs:SplitToningShadowSaturation="14"
   crs:SplitToningHighlightHue="239"
   crs:SplitToningHighlightSaturation="4"
   crs:SplitToningBalance="+22"
   crs:ColorGradeMidtoneHue="0"
   crs:ColorGradeMidtoneSat="0"
   crs:ColorGradeShadowLum="0"
   crs:ColorGradeMidtoneLum="0"
   crs:ColorGradeHighlightLum="0"
   crs:ColorGradeBlending="100"
   crs:ColorGradeGlobalHue="0"
   crs:ColorGradeGlobalSat="0"
   crs:ColorGradeGlobalLum="0"
   crs:VignetteAmount="0"
   crs:DefringePurpleAmount="0"
   crs:DefringePurpleHueLo="30"
   crs:DefringePurpleHueHi="70"
   crs:DefringeGreenAmount="0"
   crs:DefringeGreenHueLo="40"
   crs:DefringeGreenHueHi="60"
   crs:GrainAmount="19"
   crs:GrainSize="25"
   crs:GrainFrequency="50"
   crs:PostCropVignetteAmount="-42"
   crs:PostCropVignetteMidpoint="32"
   crs:PostCropVignetteFeather="59"
   crs:PostCropVignetteRoundness="0"
   crs:PostCropVignetteStyle="1"
   crs:PostCropVignetteHighlightContrast="0"
   crs:ShadowTint="0"
   crs:RedHue="0"
   crs:RedSaturation="0"
   crs:GreenHue="0"
   crs:GreenSaturation="0"
   crs:BlueHue="0"
   crs:BlueSaturation="0"
   crs:HDREditMode="0"
   crs:CurveRefineSaturation="100"
   crs:OverrideLookVignette="True"
   crs:ToneCurveName2012="Custom"
   crs:HasSettings="True"
   crs:AsShotTemperature="5500"
   crs:AsShotTint="13">
   <crs:Name>
    <rdf:Alt>
     <rdf:li xml:lang="x-default">Capitalinas - Mónica Girotti</rdf:li>
    </rdf:Alt>
   </crs:Name>
   <crs:ShortName>
    <rdf:Alt>
     <rdf:li xml:lang="x-default"/>
    </rdf:Alt>
   </crs:ShortName>
   <crs:SortName>
    <rdf:Alt>
     <rdf:li xml:lang="x-default"/>
    </rdf:Alt>
   </crs:SortName>
   <crs:Group>
    <rdf:Alt>
     <rdf:li xml:lang="x-default">Saved from Recommended</rdf:li>
    </rdf:Alt>
   </crs:Group>
   <crs:Description>
    <rdf:Alt>
     <rdf:li xml:lang="x-default"/>
    </rdf:Alt>
   </crs:Description>
   <crs:ToneCurvePV2012>
    <rdf:Seq>
     <rdf:li>0, 30</rdf:li>
     <rdf:li>90, 87</rdf:li>
     <rdf:li>154, 153</rdf:li>
     <rdf:li>255, 255</rdf:li>
    </rdf:Seq>
   </crs:ToneCurvePV2012>
   <crs:ToneCurvePV2012Red>
    <rdf:Seq>
     <rdf:li>0, 0</rdf:li>
     <rdf:li>255, 255</rdf:li>
    </rdf:Seq>
   </crs:ToneCurvePV2012Red>
   <crs:ToneCurvePV2012Green>
    <rdf:Seq>
     <rdf:li>0, 0</rdf:li>
     <rdf:li>255, 255</rdf:li>
    </rdf:Seq>
   </crs:ToneCurvePV2012Green>
   <crs:ToneCurvePV2012Blue>
    <rdf:Seq>
     <rdf:li>0, 0</rdf:li>
     <rdf:li>255, 255</rdf:li>
    </rdf:Seq>
   </crs:ToneCurvePV2012Blue>
   <crs:PointColors>
    <rdf:Seq>
     <rdf:li>-1.000000, -1.000000, -1.000000, -1.000000, -1.000000, -1.000000, -1.000000, -1.000000, -1.000000, -1.000000, -1.000000, -1.000000, -1.000000, -1.000000, -1.000000, -1.000000, -1.000000, -1.000000, -1.000000</rdf:li>
    </rdf:Seq>
   </crs:PointColors>
   <crs:ColorVariance>
    <rdf:Seq>
     <rdf:li>-50.000000</rdf:li>
    </rdf:Seq>
   </crs:ColorVariance>
   <crs:Look>
    <rdf:Description
     crs:Name="Adobe Color"
     crs:Amount="1"
     crs:UUID="B952C231111CD8E0ECCF14B86BAA7077"
     crs:SupportsAmount="false"
     crs:SupportsMonochrome="false"
     crs:SupportsOutputReferred="false"
     crs:Stubbed="true">
    <crs:Group>
     <rdf:Alt>
      <rdf:li xml:lang="x-default">Profiles</rdf:li>
     </rdf:Alt>
    </crs:Group>
    </rdf:Description>
   </crs:Look>
  </rdf:Description>
 </rdf:RDF>
</x:xmpmeta>
