android/app/src/main/assets/presets/afterglow/the_duo.xmp
<x:xmpmeta xmlns:x="adobe:ns:meta/" x:xmptk="Adobe XMP Core 7.0-c000 1.000000, 0000/00/00-00:00:00        ">
 <rdf:RDF xmlns:rdf="http://www.w3.org/1999/02/22-rdf-syntax-ns#">
  <rdf:Description rdf:about=""
    xmlns:crs="http://ns.adobe.com/camera-raw-settings/1.0/"
   crs:PresetType="Normal"
   crs:Cluster=""
   crs:UUID="D074D350C10F49C3823BE98CEA6FB945"
   crs:SupportsAmount2="True"
   crs:SupportsAmount="True"
   crs:SupportsColor="True"
   crs:SupportsMonochrome="True"
   crs:SupportsHighDynamicRange="True"
   crs:SupportsNormalDynamicRange="True"
   crs:SupportsSceneReferred="True"
   crs:SupportsOutputReferred="True"
   crs:RequiresRGBTables="False"
   crs:ShowInPresets="True"
   crs:ShowInQuickActions="False"
   crs:CameraModelRestriction=""
   crs:Copyright=""
   crs:ContactInfo=""
   crs:Version="18.4"
   crs:ProcessVersion="15.4"
   crs:WhiteBalance="Custom"
   crs:Temperature="5600"
   crs:Tint="+14"
   crs:Exposure2012="+0.17"
   crs:Contrast2012="+53"
   crs:Highlights2012="-20"
   crs:Shadows2012="+94"
   crs:Whites2012="+38"
   crs:Blacks2012="-16"
   crs:Texture="-11"
   crs:Clarity2012="+10"
   crs:Dehaze="+11"
   crs:Vibrance="-17"
   crs:Saturation="-30"
   crs:ParametricShadows="0"
   crs:ParametricDarks="0"
   crs:ParametricLights="0"
   crs:ParametricHighlights="0"
   crs:ParametricShadowSplit="25"
   crs:ParametricMidtoneSplit="50"
   crs:ParametricHighlightSplit="75"
   crs:Sharpness="26"
   crs:SharpenRadius="+0.8"
   crs:SharpenDetail="41"
   crs:SharpenEdgeMasking="50"
   crs:LuminanceSmoothing="42"
   crs:LuminanceNoiseReductionDetail="50"
   crs:LuminanceNoiseReductionContrast="0"
   crs:ColorNoiseReduction="37"
   crs:ColorNoiseReductionDetail="50"
   crs:ColorNoiseReductionSmoothness="50"
   crs:HueAdjustmentRed="-21"
   crs:HueAdjustmentOrange="-2"
   crs:HueAdjustmentYellow="0"
   crs:HueAdjustmentGreen="0"
   crs:HueAdjustmentAqua="0"
   crs:HueAdjustmentBlue="-2"
   crs:HueAdjustmentPurple="0"
   crs:HueAdjustmentMagenta="0"
   crs:SaturationAdjustmentRed="-20"
   crs:SaturationAdjustmentOrange="-32"
   crs:SaturationAdjustmentYellow="-48"
   crs:SaturationAdjustmentGreen="-37"
   crs:SaturationAdjustmentAqua="0"
   crs:SaturationAdjustmentBlue="+2"
   crs:SaturationAdjustmentPurple="0"
   crs:SaturationAdjustmentMagenta="0"
   crs:LuminanceAdjustmentRed="-27"
   crs:LuminanceAdjustmentOrange="-14"
   crs:LuminanceAdjustmentYellow="-42"
   crs:LuminanceAdjustmentGreen="0"
   crs:LuminanceAdjustmentAqua="0"
   crs:LuminanceAdjustmentBlue="-1"
   crs:LuminanceAdjustmentPurple="0"
   crs:LuminanceAdjustmentMagenta="0"
   crs:SplitToningShadowHue="42"
   crs:SplitToningShadowSaturation="3"
   crs:SplitToningHighlightHue="43"
   crs:SplitToningHighlightSaturation="26"
   crs:SplitToningBalance="0"
   crs:ColorGradeMidtoneHue="0"
   crs:ColorGradeMidtoneSat="0"
   crs:ColorGradeShadowLum="0"
   crs:ColorGradeMidtoneLum="0"
   crs:ColorGradeHighlightLum="0"
   crs:ColorGradeBlending="50"
   crs:ColorGradeGlobalHue="0"
   crs:ColorGradeGlobalSat="0"
   crs:ColorGradeGlobalLum="0"
   crs:VignetteAmount="0"
   crs:DefringePurpleAmount="0"
   crs:DefringePurpleHueLo="30"
   crs:DefringePurpleHueHi="70"
   crs:DefringeGreenAmount="0"
   crs:DefringeGreenHueLo="40"
   crs:DefringeGreenHueHi="60"
   crs:GrainAmount="0"
   crs:GrainFrequency="40"
   crs:PostCropVignetteAmount="-36"
   crs:PostCropVignetteMidpoint="20"
   crs:PostCropVignetteFeather="100"
   crs:PostCropVignetteRoundness="+4"
   crs:PostCropVignetteStyle="1"
   crs:PostCropVignetteHighlightContrast="2"
   crs:ShadowTint="0"
   crs:RedHue="0"
   crs:RedSaturation="0"
   crs:GreenHue="0"
   crs:GreenSaturation="0"
   crs:BlueHue="0"
   crs:BlueSaturation="0"
   crs:HDREditMode="0"
   crs:CurveRefineSaturation="100"
   crs:OverrideLookVignette="True"
   crs:ToneCurveName2012="Custom"
   crs:HasSettings="True"
   crs:AsShotTemperature="5500"
   crs:AsShotTint="13">
   <crs:Name>
    <rdf:Alt>
     <rdf:li xml:lang="x-default">The duo - Louis Hugo</rdf:li>
    </rdf:Alt>
   </crs:Name>
   <crs:ShortName>
    <rdf:Alt>
     <rdf:li xml:lang="x-default"/>
    </rdf:Alt>
   </crs:ShortName>
   <crs:SortName>
    <rdf:Alt>
     <rdf:li xml:lang="x-default"/>
    </rdf:Alt>
   </crs:SortName>
   <crs:Group>
    <rdf:Alt>
     <rdf:li xml:lang="x-default">Saved from Recommended</rdf:li>
    </rdf:Alt>
   </crs:Group>
   <crs:Description>
    <rdf:Alt>
     <rdf:li xml:lang="x-default"/>
    </rdf:Alt>
   </crs:Description>
   <crs:ToneCurvePV2012>
    <rdf:Seq>
     <rdf:li>0, 35</rdf:li>
     <rdf:li>70, 61</rdf:li>
     <rdf:li>127, 125</rdf:li>
     <rdf:li>206, 188</rdf:li>
     <rdf:li>252, 226</rdf:li>
    </rdf:Seq>
   </crs:ToneCurvePV2012>
   <crs:ToneCurvePV2012Red>
    <rdf:Seq>
     <rdf:li>0, 0</rdf:li>
     <rdf:li>255, 255</rdf:li>
    </rdf:Seq>
   </crs:ToneCurvePV2012Red>
   <crs:ToneCurvePV2012Green>
    <rdf:Seq>
     <rdf:li>0, 0</rdf:li>
     <rdf:li>255, 255</rdf:li>
    </rdf:Seq>
   </crs:ToneCurvePV2012Green>
   <crs:ToneCurvePV2012Blue>
    <rdf:Seq>
     <rdf:li>0, 0</rdf:li>
     <rdf:li>255, 255</rdf:li>
    </rdf:Seq>
   </crs:ToneCurvePV2012Blue>
   <crs:PointColors>
    <rdf:Seq>
     <rdf:li>-1.000000, -1.000000, -1.000000, -1.000000, -1.000000, -1.000000, -1.000000, -1.000000, -1.000000, -1.000000, -1.000000, -1.000000, -1.000000, -1.000000, -1.000000, -1.000000, -1.000000, -1.000000, -1.000000</rdf:li>
    </rdf:Seq>
   </crs:PointColors>
   <crs:ColorVariance>
    <rdf:Seq>
     <rdf:li>-50.000000</rdf:li>
    </rdf:Seq>
   </crs:ColorVariance>
   <crs:Look>
    <rdf:Description
     crs:Name="Artistic 04"
     crs:Amount="0.98"
     crs:Cluster="Adobe"
     crs:UUID="4B2C86502E5F2637A81F96F8D96AC1F9"
     crs:SupportsMonochrome="false"
     crs:Stubbed="true">
    <crs:Group>
     <rdf:Alt>
      <rdf:li xml:lang="x-default">Artistic</rdf:li>
     </rdf:Alt>
    </crs:Group>
    </rdf:Description>
   </crs:Look>
  </rdf:Description>
 </rdf:RDF>
</x:xmpmeta>
